source/svgs/bowtie/uE9E2-file-image.svg

<svg xmlns="http://www.w3.org/2000/svg" viewBox="0 0 448 448"><path d="M160 128v256h288v-256h-288zm32 32h224v169.375l-64-64-32 32-64-64-64 64v-137.375zm192 48c0 8.837-7.163 16-16 16s-16-7.163-16-16 7.163-16 16-16 16 7.163 16 16zm0 208v32h-352v-448h230.625l96 96h-45.25l-57.375-57.375v57.375h-32v-64h-160v384h320z"/></svg>

<svg xmlns="http://www.w3.org/2000/svg" viewBox="0 0 448 448"><path d="M160 128v256h288V128H160zm32 32h224v169.375l-64-64-32 32-64-64-64 64V160zm192 48c0 8.837-7.163 16-16 16s-16-7.163-16-16 7.163-16 16-16 16 7.163 16 16zm0 208v32H32V0h230.625l96 96h-45.25L256 38.625V96h-32V32H64v384h320z"/></svg>
